X:1
T:Title
%%score { ( 1 3 ) | ( 2 4 ) }
L:1/8
M:9/8
K:Db
V:1 treble nm="Grand Piano"
V:3 treble 
V:2 bass 
V:4 bass 
V:1
 z3 z3[Q:1/4=90] FFF | [FB]3 [FA]2 F F_F=F | [FA]3 [EG]2 [=DF] [EG][FA][GB] | %3
 [Gc]3 [GB]2 [EG] [GB][FA][EG] | F6 FFF | [FB]3 [FA]2 [FA] [EF=A][EFA][EFA] | %6
 [EFc]3 [DFB]2 [DFB] [E=GB][EAc][EGd] | [Ae]6[K:bass][K:treble] z3 |[M:3/4] [A,CA]6 |[M:3/8] A3 | %10
[M:9/8] .G6 z3 | [DFA][A,DF][DGB] [DFA]3 A3 | .G6 z2 .A | [Fd][Ac][B,GB] [DFA]3 A3 | .f6 z3 | %15
 [F_c][Gc][Ac] B3 B3 | %16
 z3 d6[Q:1/4=87][Q:1/4=84][Q:1/4=82][Q:1/4=79][Q:1/4=76][Q:1/4=73][Q:1/4=70] | %17
[M:3/4] AE [CGA] [DFA]3 |] %18
V:2
 z3 z3 [D,A,D][D,A,D][D,A,D] | [D,D]3 [D,D]2 [D,A,D] [D,A,D][D,=G,D][D,A,D] | %2
 [A,,A,]3 [A,,A,]2 [A,,A,] [A,,A,][A,,A,][A,,A,] | [A,,A,]3 [A,,A,]2 [A,,A,] [A,,A,][B,,A,][C,A,] | %4
 [D,A,D]6 [D,A,D][D,A,D][D,A,D] | [D,D]3 [D,D]2 [D,D] C,C,C, | B,,3 B,,2 B,, E,/D,/C,B,, | %7
 [A,,C]3 [A,,A,]2 [A,E] [E,A,E][E,A,C][E,=G,D] |[M:3/4] A,,6 |[M:3/8][K:treble] F3 | %10
[M:9/8] .E6[K:bass] z3 | D,D,D, D,3[K:treble] F3 | .E6[K:bass] z3 | %13
 [D,A,][D,A,]D, D,3[K:treble] F3 | .A6[K:bass] z3 | [D,D][E,D][F,D][K:treble] [G,DG]3 [G,DG]3 | %16
 [=G,B,_F][G,B,F][G,DF] [A,D=F]3 [=A,D_F]2 [G,DF] |[M:3/4] [A,DF][K:bass][A,C] A,, D,3 |] %18
V:3
 x9 | x9 | x9 | x9 | x9 | x9 | x9 | z[K:bass] C,E,[K:treble] C2 c cEB |[M:3/4] x6 |[M:3/8] x3 | %10
[M:9/8] z2 A, A,[=DF][EG] [Ac][GB][CGA] | x9 | z2 A, A,[=DF][EG] [ce][Bd]c/-[Gc]/ | x9 | %14
 z2 D D[Ec][Fd] [Ge][Fd][FA] | x9 | dcB z3 =G2 B |[M:3/4] x6 |] %18
V:4
 x9 | x9 | x9 | x9 | x9 | x9 | x9 | x9 |[M:3/4] x6 |[M:3/8][K:treble] x3 | %10
[M:9/8] z2[K:bass] A,, A,,[A,,A,][A,,A,] [A,,A,][A,,A,]A,, | x6[K:treble] x3 | %12
 z2[K:bass] A,, A,,[A,,A,][A,,A,] [A,,A,][A,,A,][A,,A,] | x6[K:treble] x3 | %14
 z2[K:bass] D, D,[D,A,][D,A,] [D,A,][D,A,][D,D] | x3[K:treble] x6 | x9 |[M:3/4] x[K:bass] x5 |] %18

